src/img/icon-stablecoin.svg

<?xml version="1.0" encoding="UTF-8" standalone="no"?>
<svg width="60px" height="60px" viewBox="0 0 60 60" version="1.1" xmlns="http://www.w3.org/2000/svg" xmlns:xlink="http://www.w3.org/1999/xlink">
    <!-- Generator: sketchtool 3.7 (28169) - http://www.bohemiancoding.com/sketch -->
    <title>2958C635-C8BA-4CB1-8880-4385E7B235F5</title>
    <desc>Created with sketchtool.</desc>
    <defs></defs>
    <g id="Page-1" stroke="none" stroke-width="1" fill="none" fill-rule="evenodd">
        <g id="desktop" transform="translate(-1980.000000, -2119.000000)">
            <g id="slide2" transform="translate(0.000000, 1400.000000)">
                <g id="3" transform="translate(1880.000000, 619.000000)">
                    <g id="icon_stablecoin" transform="translate(100.000000, 100.000000)">
                        <path d="M33,56.0742857 C46.254834,56.0742857 57,45.5133226 57,32.4857143 C57,19.458106 46.254834,8.89714286 33,8.89714286 C19.745166,8.89714286 9,19.458106 9,32.4857143 C9,45.5133226 19.745166,56.0742857 33,56.0742857 Z" id="Oval-13-Copy" fill="#CFEEDD"></path>
                        <path d="M28,51.1771429 L28,51.1771429 C14.745166,51.1771429 4,40.6161797 4,27.5885714 C4,14.5609632 14.745166,4 28,4 C41.254834,4 52,14.5609632 52,27.5885714 C52,40.6161797 41.254834,51.1771429 28,51.1771429 L28,51.1771429 Z" id="Oval-13" fill="#5FC48D"></path>
                        <path d="M48,27.5885714 C48,16.7857319 39.0610286,8 28,8 C16.9389714,8 8,16.7857319 8,27.5885714 C8,38.391411 16.9389714,47.1771429 28,47.1771429 C39.0610286,47.1771429 48,38.391411 48,27.5885714 Z" id="Path" fill="#CFEEDD"></path>
                        <path d="M30.3710938,31.3520089 C30.3710938,30.6879431 30.1367211,30.1781826 29.6679688,29.8227121 C29.1992164,29.4672415 28.3554748,29.0922453 27.1367188,28.6977121 C25.9179627,28.3031788 24.9531286,27.9145108 24.2421875,27.5316964 C22.3046778,26.4848162 21.3359375,25.074674 21.3359375,23.3012277 C21.3359375,22.3793481 21.5957005,21.5570907 22.1152344,20.8344308 C22.6347682,20.1117709 23.3808545,19.5473235 24.3535156,19.1410714 C25.3261767,18.7348194 26.4179627,18.5316964 27.6289062,18.5316964 C28.8476623,18.5316964 29.933589,18.7523973 30.8867188,19.1938058 C31.8398485,19.6352143 32.5800755,20.2582549 33.1074219,21.0629464 C33.6347683,21.867638 33.8984375,22.7816913 33.8984375,23.8051339 L30.3828125,23.8051339 C30.3828125,23.02388 30.1367212,22.4164642 29.6445312,21.9828683 C29.1523413,21.5492724 28.460942,21.3324777 27.5703125,21.3324777 C26.7109332,21.3324777 26.0429711,21.5141165 25.5664062,21.8773996 C25.0898414,22.2406826 24.8515625,22.7191935 24.8515625,23.3129464 C24.8515625,23.8676367 25.1308566,24.3324758 25.6894531,24.7074777 C26.2480497,25.0824796 27.0703071,25.4340385 28.15625,25.7621652 C30.15626,26.3637307 31.6132767,27.109817 32.5273438,28.0004464 C33.4414108,28.8910759 33.8984375,30.0004398 33.8984375,31.3285714 C33.8984375,32.8051413 33.3398493,33.9633329 32.2226562,34.8031808 C31.1054632,35.6430288 29.601572,36.0629464 27.7109375,36.0629464 C26.3984309,36.0629464 25.2031304,35.8227145 24.125,35.3422433 C23.0468696,34.8617722 22.2246122,34.2035756 21.6582031,33.3676339 C21.091794,32.5316922 20.8085938,31.5629519 20.8085938,30.4613839 L24.3359375,30.4613839 C24.3359375,32.3442058 25.4609262,33.2856027 27.7109375,33.2856027 C28.5468792,33.2856027 29.1992164,33.1156825 29.6679688,32.7758371 C30.1367211,32.4359916 30.3710938,31.961387 30.3710938,31.3520089 L30.3710938,31.3520089 Z" id="S" fill="#5FC48D"></path>
                    </g>
                </g>
            </g>
        </g>
    </g>
</svg>

<svg width="60" height="60" viewBox="0 0 60 60" xmlns="http://www.w3.org/2000/svg"><title>2958C635-C8BA-4CB1-8880-4385E7B235F5</title><g fill="none" fill-rule="evenodd"><path d="M33 56.074c13.255 0 24-10.56 24-23.588S46.255 8.897 33 8.897 9 19.458 9 32.486c0 13.027 10.745 23.588 24 23.588z" fill="#CFEEDD"/><path d="M28 51.177c-13.255 0-24-10.56-24-23.588S14.745 4 28 4s24 10.561 24 23.589c0 13.027-10.745 23.588-24 23.588z" fill="#5FC48D"/><path d="M48 27.589C48 16.786 39.061 8 28 8S8 16.786 8 27.589c0 10.802 8.939 19.588 20 19.588s20-8.786 20-19.588z" fill="#CFEEDD"/><path d="M30.371 31.352c0-.664-.234-1.174-.703-1.53-.469-.355-1.313-.73-2.531-1.124-1.219-.395-2.184-.783-2.895-1.166-1.937-1.047-2.906-2.457-2.906-4.23 0-.923.26-1.745.78-2.468.519-.722 1.265-1.287 2.238-1.693.972-.406 2.064-.61 3.275-.61 1.219 0 2.305.221 3.258.663.953.441 1.693 1.064 2.22 1.869.528.805.791 1.719.791 2.742h-3.515c0-.781-.246-1.389-.738-1.822-.493-.434-1.184-.65-2.075-.65-.86 0-1.527.181-2.004.544-.476.364-.714.842-.714 1.436 0 .555.279 1.02.837 1.394.559.375 1.381.727 2.467 1.055 2 .602 3.457 1.348 4.371 2.238.914.891 1.371 2 1.371 3.329 0 1.476-.558 2.634-1.675 3.474-1.118.84-2.621 1.26-4.512 1.26-1.313 0-2.508-.24-3.586-.72-1.078-.481-1.9-1.14-2.467-1.975-.566-.836-.85-1.805-.85-2.907h3.528c0 1.883 1.125 2.825 3.375 2.825.836 0 1.488-.17 1.957-.51.469-.34.703-.815.703-1.424z" fill="#5FC48D"/></g></svg>
